X: 30370
T: Old Pigeon On The Gate, The
R: reel
M: 4/4
K: Gmajor
|:dGG2 d3G|(3Bcd eB dBAB|cFF2 c3F|(3Bcd eB dBAB|
dGG2 d3G|(3Bcd eB dBAG|FGAd f3e|dcAF G2:|
|:dggf g3f|dgg2 bgaf|dffe f3e|defg agfe|
dggf g3f|dgg2 bgaf|d^cde f3e|dcAF G2:|

